src/images/app-icons/dark-theme/CICS.svg

<svg xmlns="http://www.w3.org/2000/svg" viewBox="0 0 32 32"><defs><linearGradient id="CICS_svg__a" x1="8" y1="28" x2="17" y2="28" gradientUnits="userSpaceOnUse"><stop offset=".2"/><stop offset=".9" stop-opacity="0"/></linearGradient><linearGradient id="CICS_svg__b" x1="15" y1="4" x2="24" y2="4" gradientUnits="userSpaceOnUse"><stop offset=".1" stop-opacity="0"/><stop offset=".8"/></linearGradient><linearGradient id="CICS_svg__d" y1="32" x2="32" gradientUnits="userSpaceOnUse"><stop offset=".1" stop-color="#3ddbd9"/><stop offset=".9" stop-color="#4589ff"/></linearGradient><mask id="CICS_svg__c" x="0" y="0" width="32" height="32" maskUnits="userSpaceOnUse"><path d="M5 18H3v-4A11.013 11.013 0 0114 3h9v2h-9a9.011 9.011 0 00-9 9zM18 29H9v-2h9a9.011 9.011 0 009-9v-4h2v4a11.013 11.013 0 01-11 11z" fill="#fff"/><path fill="url(#CICS_svg__a)" d="M8 26h9v4H8z"/><path fill="url(#CICS_svg__b)" d="M15 2h9v4h-9z"/></mask></defs><g data-name="Layer 2"><g data-name="Dark theme icons"><g mask="url(#CICS_svg__c)"><path fill="url(#CICS_svg__d)" d="M0 0h32v32H0z"/></g><path d="M16 21a5 5 0 115-5 5.006 5.006 0 01-5 5zm0-8a3 3 0 103 3 3 3 0 00-3-3z" fill="#f4f4f4"/><circle cx="28" cy="10" r="2" fill="#f4f4f4"/><circle cx="4" cy="22" r="2" fill="#f4f4f4"/></g></g></svg>

<svg xmlns="http://www.w3.org/2000/svg" xmlns:xlink="http://www.w3.org/1999/xlink" viewBox="0 0 32 32"><defs><style>.cls-1{fill:#fff;}.cls-2{fill:url(#linear-gradient);}.cls-3{fill:url(#linear-gradient-2);}.cls-4{mask:url(#mask);}.cls-5{fill:url(#linear-gradient-3);}.cls-6{fill:#f4f4f4;}</style><linearGradient id="linear-gradient" x1="8" y1="28" x2="17" y2="28" gradientUnits="userSpaceOnUse"><stop offset="0.2"/><stop offset="0.9" stop-opacity="0"/></linearGradient><linearGradient id="linear-gradient-2" x1="15" y1="4" x2="24" y2="4" gradientUnits="userSpaceOnUse"><stop offset="0.1" stop-opacity="0"/><stop offset="0.8"/></linearGradient><mask id="mask" x="0" y="0" width="32" height="32" maskUnits="userSpaceOnUse"><path class="cls-1" d="M5,18H3V14A11.013,11.013,0,0,1,14,3h9V5H14a9.011,9.011,0,0,0-9,9Z"/><path class="cls-1" d="M18,29H9V27h9a9.011,9.011,0,0,0,9-9V14h2v4A11.013,11.013,0,0,1,18,29Z"/><rect class="cls-2" x="8" y="26" width="9" height="4"/><rect class="cls-3" x="15" y="2" width="9" height="4"/></mask><linearGradient id="linear-gradient-3" y1="32" x2="32" gradientUnits="userSpaceOnUse"><stop offset="0.1" stop-color="#3ddbd9"/><stop offset="0.9" stop-color="#4589ff"/></linearGradient></defs><g id="Layer_2" data-name="Layer 2"><g id="Dark_theme_icons" data-name="Dark theme icons"><g class="cls-4"><rect class="cls-5" width="32" height="32"/></g><path class="cls-6" d="M16,21a5,5,0,1,1,5-5A5.006,5.006,0,0,1,16,21Zm0-8a3,3,0,1,0,3,3A3,3,0,0,0,16,13Z"/><circle class="cls-6" cx="28" cy="10" r="2"/><circle class="cls-6" cx="4" cy="22" r="2"/></g></g></svg>
